X:46
T:Rakish Paddy
S:Bernie Waugh
R:Reel
M:4/4
L:1/8
K:D Mixolydian
cB|:\
"C"cded c/d/cBc|AcGB ADD/D/D|"D"Ad~d^c d2de|fde/f/g fded|
"C"cded c/d/cBc|"Am"AcG=F EDCE|"Dm"DCDE "F"=FAdB|1\
"Am"cAG_B "Dm"ADD=B:|2\
"Am"cAG_B "Dm"ADgf||
"Em"efgb a/g/fgB|"G"gagf "A"ed^ce|"D"d/d/dad bdad|"F#m"abag ~fedf|
"Em"efgb a/g/fgB|"G"gagf "A"ed^ce|"D"def/f/g abaf|"A"~g2ag "D"fddf|
"Em"efgb a/g/fgB|"G"gagf "A"ed^ce|"D"d/d/dad bdad|"F#m"abag fdAB|
"F"c/c/cgc acga|"G"gagf "A"ed^ce|"D"def/f/g abaf|"A"~g2ag "D"fddB|]

